brandFactory_export/1.Light/Camiseta _1Light.svg

<?xml version="1.0" encoding="UTF-8"?>
<svg width="24px" height="24px" viewBox="0 0 24 24" version="1.1" xmlns="http://www.w3.org/2000/svg" xmlns:xlink="http://www.w3.org/1999/xlink">
    <title>1.Light/Camiseta _1Light</title>
    <g id="Symbols" stroke="none" stroke-width="1" fill="none" fill-rule="evenodd">
        <g id="1.Light/Camiseta-_1Light" fill="#5CB615" fill-rule="nonzero">
            <path d="M20.7831933,9.5394958 L18.6521008,8.50420168 C18.5008403,8.43361345 18.3260504,8.44369748 18.1815126,8.53109244 C18.0403361,8.62184874 17.9563025,8.77983193 17.9563025,8.9512605 L17.9966387,22.6386555 L5.93277311,22.6386555 L5.97310924,8.9512605 C5.97310924,8.78319328 5.88907563,8.62521008 5.74789916,8.53445378 C5.60672269,8.44369748 5.43193277,8.43361345 5.27731092,8.50420168 L3.09243697,9.55294118 L1.1092437,5.13613445 L7.68067227,1.31764706 C7.95966387,3.6302521 9.45546218,4.8907563 11.9663866,4.8907563 C14.4705882,4.8907563 15.9596639,3.6302521 16.2420168,1.33445378 L22.5277311,5.1394958 L20.7831933,9.5394958 L20.7831933,9.5394958 Z M23.3848739,4.50756303 L16.0605042,0.0705882353 C16.0571429,0.0672268908 16.0504202,0.0672268908 16.0470588,0.0672268908 C16.010084,0.0470588235 15.9731092,0.0369747899 15.9294118,0.0268907563 C15.902521,0.0201680672 15.8756303,0.0134453782 15.8453782,0.0100840336 C15.8352941,0.0100840336 15.8285714,0.00336134454 15.8184874,0.00336134454 C15.8016807,0.00336134454 15.7882353,0.0100840336 15.7714286,0.0134453782 C15.7310924,0.0168067227 15.6907563,0.0235294118 15.6504202,0.0369747899 C15.6336134,0.043697479 15.6201681,0.0504201681 15.6067227,0.0571428571 C15.5630252,0.0773109244 15.5226891,0.104201681 15.4857143,0.141176471 C15.4789916,0.144537815 15.4722689,0.154621849 15.4655462,0.161344538 C15.4420168,0.188235294 15.4117647,0.208403361 15.394958,0.242016807 C15.3848739,0.262184874 15.3815126,0.278991597 15.3747899,0.299159664 C15.3747899,0.302521008 15.3714286,0.305882353 15.3714286,0.305882353 C15.3445378,0.366386555 15.3344538,0.430252101 15.3344538,0.497478992 C15.3344538,2.78991597 14.2352941,3.90252101 11.9697479,3.90252101 C9.70756303,3.90252101 8.60840336,2.78655462 8.60840336,0.494117647 C8.60840336,0.315966387 8.51764706,0.154621849 8.36638655,0.0672268908 C8.21512605,-0.0201680672 8.0302521,-0.0201680672 7.8789916,0.0672268908 L0.245378151,4.50420168 C0.0268907563,4.63193277 -0.0605042017,4.90420168 0.043697479,5.13613445 L2.41344538,10.4168067 C2.46722689,10.5378151 2.56470588,10.6285714 2.68907563,10.6756303 C2.81008403,10.7226891 2.94789916,10.7159664 3.06554622,10.6588235 L5.00168067,9.73109244 L4.96134454,23.1327731 C4.96134454,23.2638655 5.01176471,23.3915966 5.10252101,23.4823529 C5.19327731,23.5764706 5.31764706,23.6268908 5.44537815,23.6268908 L18.487395,23.6268908 C18.6151261,23.6268908 18.7394958,23.5764706 18.8302521,23.4823529 C18.9210084,23.3882353 18.9714286,23.2638655 18.9714286,23.1327731 L18.9310924,9.73781513 L20.8302521,10.6588235 C20.9512605,10.7159664 21.0890756,10.7226891 21.2168067,10.6722689 C21.3411765,10.6252101 21.4420168,10.5243697 21.492437,10.3966387 L23.5865546,5.11932773 C23.6773109,4.88739496 23.5932773,4.63193277 23.3848739,4.50756303 L23.3848739,4.50756303 Z" id="Camiseta-_1Light"></path>
        </g>
    </g>
</svg>

<svg width="24" height="24" viewBox="0 0 24 24" xmlns="http://www.w3.org/2000/svg"><path d="M20.783 9.54l-2.13-1.036a.498.498 0 00-.471.027.497.497 0 00-.226.42l.04 13.688H5.934l.04-13.688a.488.488 0 00-.696-.447L3.092 9.553 1.11 5.136l6.572-3.818C7.96 3.63 9.455 4.89 11.966 4.89c2.505 0 3.994-1.26 4.276-3.557l6.286 3.805-1.745 4.4zm2.602-5.032L16.06.07c-.004-.004-.01-.004-.014-.004a.442.442 0 00-.118-.04c-.026-.007-.053-.014-.084-.017-.01 0-.016-.007-.027-.007-.016 0-.03.007-.047.01a.514.514 0 00-.12.024l-.044.02a.413.413 0 00-.121.084c-.007.004-.014.014-.02.02-.024.027-.054.047-.071.081-.01.02-.013.037-.02.057 0 .004-.004.007-.004.007a.464.464 0 00-.037.191c0 2.293-1.099 3.406-3.364 3.406-2.262 0-3.362-1.116-3.362-3.409a.486.486 0 00-.73-.427L.246 4.504a.496.496 0 00-.201.632l2.37 5.28a.485.485 0 00.652.243l1.936-.928-.04 13.402c0 .13.05.259.14.35.091.093.216.144.343.144h13.042c.128 0 .252-.05.343-.145a.502.502 0 00.141-.35l-.04-13.394 1.9.92a.484.484 0 00.662-.262l2.094-5.277a.495.495 0 00-.202-.611z" fill="#5CB615" fill-rule="nonzero"/></svg>
